!!!!SEGMENT: pl-cz--i-53_lubomirska-ludwika--do-gory-lswietej.krn
!!!cenid: 18xx:959
!!!COM: Lubomirska, Ludwika
!!!COM-rismid: pe30102132
!!!CDT: <1829->1829
!!!CNT: Polish
!!!OTL: Do góry świętej
!!!PDT:
!!!AGN: Sacred
!!!SMS-siglum: PL-CZ
!!!SMS-shelfmark: I-53
!!!SMS-shelfwork: W
!!!SMS-variant:
!!!SMS-altvar:
!!!NIFC-rismid: 300000749
!!!URL-scan: http://repozytorium.nifc.pl/skany/pl-cz-nut--i-53
!!!ONB-nifc:
!!!key: G
**kern	**fba	**dynam	**kern	**dynam	**kern	**dynam	**kern	**text	**text	**text	**kern	**text	**text	**text	**kern	**text	**text	**text	**kern	**dynam	**kern	**dynam
*part3	*	*part3	*part8	*part8	*part7	*part7	*part6	*part6	*part6	*part6	*part5	*part5	*part5	*part5	*part4	*part4	*part4	*part4	*part2	*part2	*part1	*part1
*group4	*	*group4	*group3	*group3	*group3	*group3	*group2	*group2	*group2	*group2	*group2	*group2	*group2	*group2	*group2	*group2	*group2	*group2	*group1	*	*group1	*
*staff3	*	*	*staff8	*	*staff7	*	*staff6	*staff6	*staff6	*staff6	*staff5	*staff5	*staff5	*staff5	*staff4	*staff4	*staff4	*staff4	*staff2	*	*staff1	*
*I"Organo	*	*	*I"Violino Secundo.	*	*I"Violino Primo.	*	*I"Baſso.	*	*	*	*I"Canto Secundo.	*	*	*	*I"Canto Primo.	*	*	*	*I"Flauto IIdo	*	*I"Flauto Imo.	*
*I'org	*	*	*I'vl 2	*	*I'vl 1	*	*I'B	*	*	*	*I'S 2	*	*	*	*I'S 1	*	*	*	*I'fl 2	*	*I'fl 1	*
*Iorgan	*	*	*Ivioln	*	*Ivioln	*	*Ibass	*	*	*	*Isoprn	*	*	*	*Isoprn	*	*	*	*Iflt	*	*Iflt	*
*ICklav	*	*	*ICstr	*	*ICstr	*	*ICvox	*	*	*	*ICvox	*	*	*	*ICvox	*	*	*	*ICww	*	*ICww	*
*clefF4	*	*	*clefG2	*	*clefG2	*	*clefF4	*	*	*	*clefC1	*	*	*	*clefC1	*	*	*	*clefG2	*	*clefG2	*
*k[f#]	*	*	*k[f#]	*	*k[f#]	*	*k[f#]	*	*	*	*k[f#]	*	*	*	*k[f#]	*	*	*	*k[f#]	*	*k[f#]	*
*G:	*	*	*G:	*	*G:	*	*G:	*	*	*	*G:	*	*	*	*G:	*	*	*	*G:	*	*G:	*
*M2/4	*	*	*M2/4	*	*M2/4	*	*M2/4	*	*	*	*M2/4	*	*	*	*M2/4	*	*	*	*M2/4	*	*M2/4	*
*	*	*	*	*	*	*below	*	*v:1	*v:2	*v:3	*	*v:1	*v:2	*v:3	*	*v:1	*v:2	*v:3	*	*	*	*
!!LO:TX:t=P:problem:all\middle or right:global
!LO:N:vis=16	!	!	!	!LO:DY:t=pia	!	!LO:DY:t=pia	!	!	!	!	!	!	!	!	!	!	!	!	!	!	!	!
!LO:TX:a:Bi:t=Adagio. tardiſsime	!	!	!LO:TX:a:Bi:t=Adagio. tardiſsime.	!LO:DY:a	!LO:TX:a:Bi:t=Adagio. tardiſsime.	!	!LO:TX:a:Bi:t=Adagio. tardiſsime.	!	!	!	!LO:TX:a:Bi:t=Adagio. tardiſsime.	!	!	!	!LO:TX:a:Bi:t=Adagio. tardiſsime.	!	!	!	!LO:TX:a:Bi:t=Adagio. tardiſsime.	!LO:DY:t=pia	!LO:TX:a:Bi:t=Adagio. tardiſsime.	!LO:DY:t=pia
8r	.	.	(16B/LL	p	(16g/LL	p	8r	.	.	.	8r	.	.	.	16g/LL	-Do	Rę-	Niech	(16b\LL	p	(16gg\LL	p
.	.	.	16g/JJ)	.	16b/JJ)	.	.	.	.	.	.	.	.	.	16b/JJ	.	.	.	16gg\JJ)	.	16bb\JJ)	.
=1	=1	=1	=1	=1	=1	=1	=1	=1	=1	=1	=1	=1	=1	=1	=1	=1	=1	=1	=1	=1	=1	=1
!	!	!LO:DY:t=pia&colon;	!	!	!	!	!	!	!	!	!	!	!	!	!	!	!	!	!	!	!	!
8G\L	.	p	4.B/ 4.g	.	4.b\	.	4G\	-Do	-Rę-	-Niech	4.g\	Go-	-Ręka	Niech	4.b\	Go-	-ka	zle-	4.gg\	.	4.bb\	.
8D\J	.	.	.	.	.	.	.	.	.	.	.	.	.	.	.	.	.	.	.	.	.	.
8BB/L	.	.	.	.	.	.	8G\	Go-	-ka	zle-	.	.	.	.	.	.	.	.	.	.	.	.
8GG/J	.	.	8b\	.	8dd\	.	8G\	-ry	Lu-	-czy	8b\	-ry	Lu-	zle-	8dd\	-ry	Lu-	-czy	8bb\	.	8ddd\	.
=2	=2	=2	=2	=2	=2	=2	=2	=2	=2	=2	=2	=2	=2	=2	=2	=2	=2	=2	=2	=2	=2	=2
!LO:TX:t=P:problem:mixed beam	!	!	!	!	!	!	!	!	!	!	!	!	!	!	!	!	!	!	!	!	!	!
8AA/L	.	.	(8.b\L	.	(8.dd\L	.	(8G\L	Swię-	-ka-	sła-	(8.b\L	Swię-	-ka-	-czy	8.dd\L	Swię-	-ka-	sła-	(8.bb\L	.	(8.ddd\L	.
8A\J	x 3	.	.	.	.	.	8D\J)	.	.	.	.	.	.	.	.	.	.	.	.	.	.	.
.	.	.	.	.	16qqcc/LL	.	.	.	.	.	.	.	.	.	.	.	.	.	.	.	.	.
.	.	.	.	.	16qqb/JJ	.	.	.	.	.	.	.	.	.	.	.	.	.	.	.	.	.
.	.	.	16a\Jk)	.	16cc\Jk)	.	.	.	.	.	16a\Jk)	.	.	sła-	16cc\Jk	.	.	.	16aa\Jk)	.	16ccc\Jk)	.
8F#\L	.	.	8a|\	.	8cc'\	.	4D\	-tey	-sza	-bość	8a\	-teẏ	-sza	-bość	8cc\	-tey	-sza	-bość	8aa\	.	8ccc\	.
8D\J	.	.	8r	.	8r	.	.	.	.	.	8r	.	.	.	8r	.	.	.	8r	.	8r	.
=3	=3	=3	=3	=3	=3	=3	=3	=3	=3	=3	=3	=3	=3	=3	=3	=3	=3	=3	=3	=3	=3	=3
!	!	!LO:DY:t=for	!	!LO:DY:t=for	!	!LO:DY:t=for	!	!	!	!	!	!	!	!	!	!	!	!	!	!LO:DY:t=for	!	!LO:DY:t=for
8G\L	5 3	f	(8g/L	f	(8b\L	f	8G\	spiesz-	ten	a	8g\	spiesz-	ten	a	8b\	spiesz-	ten	a	(8gg\L	f	(8bb\L	f
8E\J	.	.	8B/J)	.	8g\J)	.	8G\	-no	O-	Po-	8g\	-no	O-	Po-	8g\	-no	O-	Po-	8b\J)	.	8gg\J)	.
8D\L	.	.	8A|/L	.	8f#|/L	.	8D\	czyn-	-braz	-koy	8f#\	czyn-	-braz	-koy	8f#\	czyn-	-braz	-koy	8a|\L	.	8ff#|\L	.
8G\J	.	.	(16B/L	.	(16g/L	.	8G\	-my	Kon-	spo-	8g\	-my	Kon-	spo-	(16g\LL	-my	Koń-	spo-	(16b\L	.	(16gg\L	.
.	.	.	32g/L	.	32b/L	.	.	.	.	.	.	.	.	.	16b\JJ)	.	.	.	16gg\JJ)	.	16bb\JJ)	.
.	.	.	32a/JJJ)	.	32cc/JJJ)	.	.	.	.	.	.	.	.	.	.	.	.	.	.	.	.	.
=4	=4	=4	=4	=4	=4	=4	=4	=4	=4	=4	=4	=4	=4	=4	=4	=4	=4	=4	=4	=4	=4	=4
.	.	.	.	.	8qqcc/	.	.	.	.	.	.	.	.	.	.	.	.	.	.	.	8qqccc/	.
8d|\L	.	.	(4B/ 4g	.	(4b\	.	4G\	Kro-	-czy-	-rzą-	4g\	Kro-	-czy-	-rzą-	4b\	Kro-	-czy-	-rzą-	(4gg\	.	(4bb\	.
16A|\L	.	.	.	.	.	.	.	.	.	.	.	.	.	.	.	.	.	.	.	.	.	.
16F#|\JJ	.	.	.	.	.	.	.	.	.	.	.	.	.	.	.	.	.	.	.	.	.	.
!LO:TX:t=P:problem:mixed beam	!	!	!	!	!	!	!	!	!	!	!	!	!	!	!	!	!	!	!	!	!	!
8D/L	.	.	8A/) 8f#	.	8a\)	.	8D\	-ki,	-ła,	-dzi,	8f#\	-ki,	-ła,	-dzi,	8a\	-ki,	-ła,	-dzi,	8ff#\)	.	8aa\)	.
8d\J	.	.	8r	.	8r	.	8r	.	.	.	8r	.	.	.	8r	.	.	.	8r	.	8r	.
=5	=5	=5	=5	=5	=5	=5	=5	=5	=5	=5	=5	=5	=5	=5	=5	=5	=5	=5	=5	=5	=5	=5
!	!	!LO:DY:t=pia	!	!LO:DY:rj:t=pia	!	!LO:DY:t=pia	!	!	!	!	!	!	!	!	!	!	!	!	!	!LO:DY:t=pia	!	!LO:DY:t=pia
8G\L	.	p	4B/ 4g	p	4b|\	p	4G\	nio-	z na-	u-	4g\	nio-	z na-	u-	4b\	nio-	z na-	u-	4gg|\	p	4bb|\	p
8D\J	.	.	.	.	.	.	.	.	.	.	.	.	.	.	.	.	.	.	.	.	.	.
8BB/L	.	.	(8A/L 8g	.	(8b\L	.	8G\	-sąc	-tchnie-	-smie-	8g\	-sąc	-tchnie-	-smie-	8b\	-sąc	-tchnie-	-smie-	(8gg\L	.	(8bb\L	.
8GG/J	.	.	8b/J)	.	8dd\J)	.	8G\	Ci	-nia	-rzi	8b\	Ci	-nia	-rzi	8dd\	Ci	-nia	-rzi	8bb\J)	.	8ddd\J)	.
!LO:LB:g=original	!	!	!	!	!LO:LB:g=original	!	!LO:LB:g=original	!	!	!	!LO:LB:g=original	!	!	!	!LO:LB:g=original	!	!	!	!	!	!	!
=6	=6	=6	=6	=6	=6	=6	=6	=6	=6	=6	=6	=6	=6	=6	=6	=6	=6	=6	=6	=6	=6	=6
!LO:TX:t=P:problem:mixed beam	!	!	!	!	!	!	!LO:TX:t=P:problem:numracja zwrotek	!	!	!	!LO:TX:t=P:problem:numracja zwrotek	!	!	!	!LO:TX:t=P:problem:numracja zwrotek	!	!	!	!	!	!	!
8AA/L	.	.	4A/ 4e	.	4cc#X'\	.	4E\	ser-	twe-	Woy-	4a\	ser-	twe-	Woy-	4cc#X\	ser-	twe-	Woy-	4ee'\	.	4ccc#X|\	.
8A\J	x 3	.	.	.	.	.	.	.	.	.	.	.	.	.	.	.	.	.	.	.	.	.
8E\L	.	.	(8A/L 8e	.	(8cc#\L	.	8A\	.	.	.	(8a\L	-ca	-go	-ny	(8cc#\L	-ca	-go	-ny,	(8ee\L	.	(8ccc#\L	.
8F#\J	.	.	8f#/J)	.	8dd\J)	.	8D\	-ca	-go	-ny	8f#\J)	.	.	.	8dd\J)	.	.	.	8ff#\J)	.	8ddd\J)	.
!	!	!	!LO:LB:g=original	!	!	!	!	!	!	!	!	!	!	!	!	!	!	!	!LO:LB:g=original	!	!LO:LB:g=original	!
=7	=7	=7	=7	=7	=7	=7	=7	=7	=7	=7	=7	=7	=7	=7	=7	=7	=7	=7	=7	=7	=7	=7
4G\	.	.	(8g/L	.	(8ee\L	.	8G\	w po-	my-	Oy-	8a\	w po-	my-	Oy-	8ee\	w po-	my-	Oy-	(8gg\L	.	(8eee\L	.
.	.	.	8f#/J)	.	8dd\J)	.	8F#\	-ko-	-sli	-czy-	8b\	-ko-	-sli	-czy-	8dd\	-ko-	-sli	-czy-	8ff#\J)	.	8ddd\J)	.
!LO:TX:t=P:problem:mixed beam	!	!	!	!	!	!	!	!	!	!	!	!	!	!	!	!	!	!	!	!	!	!
8A\L	x 3	.	8g|/L	.	8ee|\L	.	8G\	-rze	uis-	-zną	8g\L	-rze	ui-	-znę	8ee\	-rze	uys-	-zną	8gg'\L	.	8eee'\L	.
.	.	.	.	.	8qqgg/	.	.	.	.	.	.	.	.	.	.	.	.	.	.	.	.	.
8AA/J	.	.	(16a/L	.	(16ff#\L	.	8A\	głę-	.	roz-	(16a\L	głę-	.	roz-	(16ff#\LL	głę-	.	roz-	(16aa\L	.	(16fff#\L	.
.	.	.	16g/JJ)	.	16ee\JJ)	.	.	.	.	.	16g\JJ)	.	.	.	16ee\JJ)	.	.	.	16gg\JJ)	.	16eee\JJ)	.
=8	=8	=8	=8	=8	=8	=8	=8	=8	=8	=8	=8	=8	=8	=8	=8	=8	=8	=8	=8	=8	=8	=8
!	!	!LO:DY:t=for	!	!	!	!	!	!	!	!	!	!	!	!	!	!	!	!	!	!	!	!
8D|\L	.	f	(4g/	.	(4ee\	.	8d\L	-bo-	-ci-	-rzą-	4g/	-bo-	-ci-	-rzą-	4ee\	-bo-	-ci-	-rzą-	(4gg\	.	(4eee\	.
16F#|\L	.	.	.	.	.	.	8A\J	.	.	.	.	.	.	.	.	.	.	.	.	.	.	.
16A|\JJ	.	.	.	.	.	.	.	.	.	.	.	.	.	.	.	.	.	.	.	.	.	.
.	.	.	.	.	16qqdd/LL	.	.	.	.	.	.	.	.	.	.	.	.	.	.	.	.	.
.	.	.	.	.	16qqee/JJ	.	.	.	.	.	.	.	.	.	.	.	.	.	.	.	.	.
8d|\	.	.	8f#/)	.	8dd\)	.	4D/	-kiey,	-ła,	-dzi,	8f#/	-kiey,	-ła,	-dzi,	8dd\	-kiey,	-ła,	-dzi,	8ff#\)	.	8ddd\)	.
8r	.	.	16r	.	16r	.	.	.	.	.	16r	.	.	.	16r	.	.	.	16r	.	16r	.
!	!	!	!	!LO:DY:t=for	!	!LO:DY:t=for	!	!	!	!	!	!	!	!	!	!	!	!	!	!	!	!LO:DY:t=for
.	.	.	16a/	f	16ccn\	f	.	.	.	.	16a\	Ah!	Prze-	Az	16ccn\	Ah!	Prze-	Aż	16aa'\	.	16cccn'\	f
=9	=9	=9	=9	=9	=9	=9	=9	=9	=9	=9	=9	=9	=9	=9	=9	=9	=9	=9	=9	=9	=9	=9
!	!	!LO:DY:t=pia	!	!	!	!	!	!	!	!	!	!	!	!	!	!	!	!	!	!	!	!
8F#\L	.	p	(8.a/L	.	(8.cc\L	.	4D\	day	Prze-	Aż	8.a\	day	-ciez	nas	8.cc\	day	ciez	nas	8.aa'\L	.	(8.ccc\L	.
8G\J	.	.	.	.	.	.	.	.	.	.	.	.	.	.	.	.	.	.	.	.	.	.
!	!	!	!	!	!	!	!	!	!	!	!LO:TX:t=P:problem:t. 9-11 – poprawiony tekst 2. zwrotki	!	!	!	!LO:TX:t=P:problem:t. 9-11 – poprawiony tekst 2. zwrotki	!	!	!	!	!	!	!
.	.	.	16g/Jk)	.	16b\Jk)	.	.	.	.	.	16g\	nam	w nim	za-	16b\	nam	w nym	za-	16gg\Jk	.	16bb\Jk)	.
!LO:TX:t=P:problem:mixed beam	!	!	!	!	!	!	!	!	!	!	!	!	!	!	!	!	!	!	!	!	!	!
8d\L	.	.	(16g/LL	.	(16b\LL	.	8G\	nam	-ciez	nas	(16g\LL	wi-	nie	-wo-	(16b\LL	wi-	nie	-wo-	(16gg\LL	.	(16bb\LL	.
.	.	.	16f#/J)	.	16a\J)	.	.	.	.	.	16f#\J)	.	.	.	16a\J)	.	.	.	16ff#\J)	.	16aa\J)	.
8D/J	.	.	8f#|/J	.	8a|\J	.	8F#\	wi-	w nim	za-	8f#|\J	-dziec	masz	-ła	8a|\J	-dzieć	maz	-ła	8ff#|\J	.	8aa|\J	.
=10	=10	=10	=10	=10	=10	=10	=10	=10	=10	=10	=10	=10	=10	=10	=10	=10	=10	=10	=10	=10	=10	=10
!	!	!	!	!LO:DY:t=pia	!	!LO:DY:t=pia	!	!	!	!	!	!	!	!	!	!	!	!	!	!LO:DY:t=pia	!	!
8F#\L	.	.	(8f#/L	p	8a|\L	p	4F#\	-dziec	nie	-wo-	8f#\	Twarz	Wi-	do	8a\	Twarz	Wi-	do	(8ff#\L	p	(8aa\L	.
.	.	.	.	.	16qqff#/	.	.	.	.	.	.	.	.	.	.	.	.	.	.	.	.	.
8D\	.	.	8cc/J	.	(8ee\	.	.	.	.	.	8cc\	twą	-ze-	wie-	8ee\	twą	-ze-	wie-	8ccc\J)	.	8eee\J)	.
!	!	!	!	!	!	!	!LO:TX:t=P:problem:mixed beam	!	!	!	!	!	!	!	!	!	!	!	!	!	!	!
8F#\	.	.	8b/L	.	8dd\	.	8G\L	Twarz	masz	-ła	8b\	Swię-	-run-	-czy-	8dd\	Swię-	-run-	-czy-	(8bb\L	.	(8ddd\L	.
8D\J	.	.	8a/J)	.	8cc\J)	.	8GG/J	twą	.	do	8a\	-tą	-ku	-stey	8cc\	-tą	-ku	-stey	8aa\J)	.	8ccc\J)	.
!	!	!	!	!	!	!	!	!	!	!	!LO:LB:g=original	!	!	!	!LO:LB:g=original	!	!	!	!	!	!	!
=11	=11	=11	=11	=11	=11	=11	=11	=11	=11	=11	=11	=11	=11	=11	=11	=11	=11	=11	=11	=11	=11	=11
!	!	!	!	!	!	!	!	!	!	!	!LO:TX:t=P:problem:numracja zwrotek	!	!	!	!LO:TX:t=P:problem:numracja zwrotek	!	!	!	!	!	!	!
8G\L	.	.	(8.a/L	.	(8.cc\L	.	(8D\L	na	Wi-	wie-	(8.a\L	na	Twe-	Chwa-	(8.cc\L	na	Twe-	Chwa-	(8.aa\L	.	(8.ccc\L	.
8D\J	.	.	.	.	.	.	8G\J)	.	.	-czy-	.	.	.	.	.	.	.	.	.	.	.	.
.	.	.	16g/Jk)	.	16b\Jk)	.	.	.	.	.	16g\Jk)	.	.	.	16b\Jk)	.	.	.	16gg\Jk)	.	16bb\Jk)	.
!LO:TX:t=P:problem:mixed beam	!	!	!	!	!	!	!	!	!	!	!	!	!	!	!	!	!	!	!	!	!	!
8GG/L	.	.	4g|/	.	4b'\	.	4G\	tym	-ze-	-stey	4g\	tym,	-go,	-ły,	4b\	tym,	-go,	-ły,	4gg'\	.	4bb|\	.
8G\J	.	.	.	.	.	.	.	.	.	.	.	.	.	.	.	.	.	.	.	.	.	.
!LO:LB:g=original	!	!	!	!	!LO:LB:g=original	!	!LO:LB:g=original	!	!	!	!	!	!	!	!	!	!	!	!	!	!	!
=12	=12	=12	=12	=12	=12	=12	=12	=12	=12	=12	=12	=12	=12	=12	=12	=12	=12	=12	=12	=12	=12	=12
!LO:TX:t=P:problem:mixed beam	!	!	!	!	!	!	!LO:TX:t=P:problem:t. 12 zapisany adnotacją vide na końcu utworu	!	!	!	!	!	!	!	!	!	!	!	!	!	!	!
8GG/L	.	.	(8g/L	.	(8gg\L	.	8G\L	ſto-	-run-	Gdzie	(8g\L	ſto-	Je-	Gdzie	(8gg\L	ſto-	Je-	Gdzie	(8gg\L	.	(8gg\L	.
8G\J	.	.	8b/J	.	8dd\J	.	8B\J	.	.	.	8b\J)	.	.	.	8dd\J)	.	.	.	8bb\	.	8ddd\	.
.	.	.	.	.	16qqee/	.	.	.	.	.	.	.	.	.	.	.	.	.	.	.	.	.
8BB/L	.	.	8b/L	.	8dd\L	.	8G\	.	.	.	(8b\L	.	-mu	.	(8dd\L	.	-mu-	.	8bb\	.	8ddd\	.
8GG/J	.	.	8g/J)	.	8b\J)	.	8G\	-le	-ku	.	8g\J)	-le	.	.	8b\J)	-le	.	.	8gg\J)	.	8bb\J)	.
!	!	!	!	!	!	!	!	!	!	!	!	!	!	!	!	!	!	!	!LO:LB:g=original	!	!LO:LB:g=original	!
=13	=13	=13	=13	=13	=13	=13	=13	=13	=13	=13	=13	=13	=13	=13	=13	=13	=13	=13	=13	=13	=13	=13
!	!	!LO:DY:t=for	!	!	!	!	!LO:TX:t=P:problem:numracja zwrotek	!	!	!	!	!	!	!	!LO:TX:t=P:problem:8. poprawione na 8	!	!	!	!	!	!	!
8C/L	x 3	f	8c/L	.	8a|\L	.	4C/	ſto-	Je-	Gdzie	8f#\L	ſto-	Je-	Gdzie	8a\L	ſto-	Je-	Gdzie	(8cc\L	.	(8aa\L	.
!	!	!	!	!	!	!	!	!	!	!	!	!	!	!	!LO:TX:t=P:problem:16 poprawione na 8.	!	!	!	!	!	!	!
8AA/	.	.	8.cc/J	.	8.ee\J	.	.	.	.	.	8.cc\J	.	.	.	8.ee\J	.	.	.	8.ccc\J)	.	8.eee\J)	.
8C/	.	.	.	.	.	.	8c\	.	.	.	.	.	.	.	.	.	.	.	.	.	.	.
!	!	!	!	!	!LO:N:vis=16	!	!	!	!	!	!LO:N:vis=16	!	!	!	!LO:N:vis=16	!	!	!	!LO:N:vis=16	!	!LO:N:vis=16	!
.	.	.	(32b\LLL	.	(32dd\LLL	.	.	.	.	.	(32b\LLL	.	.	.	(32dd\LLL	.	.	.	(32bb\LLL	.	(32ddd\LLL	.
!	!	!	!	!	!LO:N:vis=16	!	!	!	!	!	!LO:N:vis=16	!	!	!	!LO:N:vis=16	!	!	!	!LO:N:vis=16	!	!LO:N:vis=16	!
.	.	.	32a/JJJ)	.	32cc\	.	.	.	.	.	32a\JJJ	.	.	.	32cc\JJJ	.	.	.	32aa\	.	32ccc\	.
!	!	!	!LO:LB:g=original	!	!	!	!	!	!	!	!	!	!	!	!	!	!	!	!	!	!	!
8AA/J	.	.	(32g/LLL	.	32b\	.	8A\	-le	-mu	.	32g\LLL	.	.	.	32b\LLL)	.	.	.	32gg\	.	32bb\	.
.	.	.	32a/J	.	32cc\	.	.	.	.	.	32a\J)	.	.	.	32cc\J	.	.	.	32aa\J	.	32ccc\J	.
.	.	.	16c/JJ)	.	16a\JJJ)	.	.	.	.	.	16f#/JJ	.	.	.	16a\JJ	.	.	.	16ff#\JJ)	.	16aa\JJ)	.
=14	=14	=14	=14	=14	=14	=14	=14	=14	=14	=14	=14	=14	=14	=14	=14	=14	=14	=14	=14	=14	=14	=14
!	!	!	!	!	!	!	!	!	!	!	!	!	!	!	!LO:TX:t=P:problem:poprawione dwa pierwsze dźwięki	!	!	!	!	!	!	!
8GG/L	.	.	8.B/L	.	8.g|/L	.	4G\	Bo-	Je-	Po-	8.g/	ſto-	Je-	.	8.g/	ſto-	Je-	Gdzie	8.b\L	.	8.gg\L	.
8BB/J	.	.	.	.	.	.	.	.	.	.	.	.	.	.	.	.	.	.	.	.	.	.
.	.	.	16B/Jk	.	16g|/Jk	.	.	.	.	.	16g/	.	.	.	16g/	.	.	.	16b\Jk	.	16gg\Jk	.
8D\L	.	.	8f#|/L	.	8a|\L	.	(8D\L	.	-mu	-koy	(8a\L	-le	-mu	Po-	(8a\L	-le	-mu	Po-	8ff#|\L	.	8aa|\L	.
8F#\J	.	.	(16b/L	.	(16dd\L	.	8F#\J)	.	zna-	.	(16dd\L)	bo-	zna-	-koy	(16dd\L)	bo-	zna-	-koy	(16bb\L	.	(16ddd\L	.
.	.	.	16a/JJ)	.	16cc\JJ)	.	.	.	.	.	16cc|\JJ)	.	.	.	16cc|\JJ)	.	.	.	16aa\JJ)	.	16ccc\JJ)	.
=15	=15	=15	=15	=15	=15	=15	=15	=15	=15	=15	=15	=15	=15	=15	=15	=15	=15	=15	=15	=15	=15	=15
!	!	!LO:DY:t=pia	!	!	!	!	!	!	!	!	!	!	!	!	!	!	!	!	!	!	!	!
8G\L	.	f	(8.a/L	.	(8.cc\L	.	4F#\	-ga-	-ne-	sta-	8.a\	-ga-	-ne-	sta-	8.cc\	-ga-	-ne-	sta-	(8.aa\L	.	(8.ccc\L	.
8D\J	.	.	.	.	.	.	.	.	.	.	.	.	.	.	.	.	.	.	.	.	.	.
.	.	.	16g/Jk)	.	16b\Jk)	.	.	.	.	.	16g\	.	.	.	16b\	.	.	.	16gg\Jk)	.	16bb\Jk)	.
!LO:TX:t=P:problem:mixed beam	!	!	!	!	!	!	!	!	!	!	!	!	!	!	!	!	!	!	!	!	!	!
.	.	.	.	.	16qqa/	.	.	.	.	.	.	.	.	.	.	.	.	.	.	.	.	.
!	!	!	!	!	!	!	!	!	!	!	!	!	!	!	!LO:TX:t=P:problem:8cc poprawione na 8b	!	!	!	!	!	!	!
8GG/L	.	.	8g|/	.	8b\	.	4G\	-tym,	-go,	-ły,	8g\	-tym,	-go,	-ły,	8b\	-tym,	-go,	-ły,	8gg\	.	8bb\	.
8G\J	.	.	8r	.	8r	.	.	.	.	.	8r	.	.	.	8r	.	.	.	8r	.	8r	.
!	!	!	!	!	!	!	!	!	!	!	!LO:LB:g=original	!	!	!	!LO:LB:g=original	!	!	!	!	!	!	!
=16	=16	=16	=16	=16	=16	=16	=16	=16	=16	=16	=16	=16	=16	=16	=16	=16	=16	=16	=16	=16	=16	=16
!LO:TX:t=P:problem:mixed beam	!	!	!	!	!	!	!	!	!	!	!LO:TX:t=P:problem:numracja zwrotek	!	!	!	!LO:TX:t=P:problem:numracja zwrotek	!	!	!	!	!	!	!
8GG/L	.	.	(8b\L	.	(8gg\L	.	8G\	ſto-	Je-	Gdzie	(8g\L	ſto-	Je-	Gdzie	(8gg\L	ſto-	Je-	Gdzie	(8b\L	.	8gg\L	.
8G\J	.	.	8g\J)	.	8dd\J	.	8G\	.	.	.	8b\J)	.	.	.	8dd\J)	.	.	.	8bb\	.	8ddd\J	.
.	.	.	.	.	16qqcc#X/	.	.	.	.	.	.	.	.	.	.	.	.	.	.	.	.	.
8BB/L	.	.	(8g/L	.	8dd\L	.	(8B\L	-le	-mu	.	(8b\L	-le	-mu	.	(8dd\L	.	-mu	.	8bb\	.	8ddd\L	.
8GG/J	.	.	8d/J)	.	8b\J)	.	8G\J)	.	.	.	8g\J)	.	.	.	8b\J)	-le	.	.	8gg\J)	.	8bb\J	.
!	!	!	!	!	!LO:LB:g=original	!	!	!	!	!	!	!	!	!	!	!	!	!	!	!	!	!
=17	=17	=17	=17	=17	=17	=17	=17	=17	=17	=17	=17	=17	=17	=17	=17	=17	=17	=17	=17	=17	=17	=17
!	!	!	!	!	!	!	!	!	!	!	!	!	!	!	!LO:N:vis=16	!	!	!	!	!	!	!
4C/	.	.	8c/L	.	8a|\L	.	4C/	ſto-	Je-	Gdzie	8f#/	ſto-	Je-	Gdzie	8a\	ſto-	Je-	Gdzie	8a/L	.	8aa\L	.
.	.	.	(8.dd\J	.	(8.ffn\J	.	.	.	.	.	8.dd\	.	.	.	8.ffn\	.	.	.	8.ffn\J	.	8.fffn\J	.
!LO:TX:t=P:problem:mixed beam	!	!	!	!	!	!	!	!	!	!	!	!	!	!	!	!	!	!	!	!	!	!
8AA/L	.	.	.	.	.	.	8C/L	.	.	.	.	.	.	.	.	.	.	.	.	.	.	.
!	!	!	!LO:N:vis=16	!	!LO:N:vis=16	!	!	!	!	!	!LON:vis=16	!	!	!	!LO:N:vis=16	!	!	!	!	!	!	!
!	!	!	!	!	!	!	!	!	!	!	!LO:N:vis=16	!	!	!	!	!	!	!	!	!	!	!
.	.	.	32cc\LLL	.	32ee\LLL	.	.	.	.	.	32ee\	.	.	.	32ee\	.	.	.	(32ee\LLL	.	(32eee\LLL	.
!	!	!	!	!	!	!	!	!	!	!	!LO:N:vis=16	!	!	!	!LO:N:vis=16	!	!	!	!	!	!	!
.	.	.	32b\	.	32dd\	.	.	.	.	.	32cc\	.	.	.	(32dd\LLL	.	.	.	32dd\JJJ	.	32ddd\JJJ	.
!	!	!	!	!	!	!	!	!	!	!	!	!	!	!	!LO:N:vis=16	!	!	!	!	!	!	!
8A\J	.	.	32a/JJJ)	.	32cc\JJJ	.	8G/J	.	.	.	(32b\LLL	.	.	.	32cc\JJJ)	.	.	.	32cc\LLL	.	32ccc\LLL	.
!	!	!	!	!	!	!	!	!	!	!	!	!	!	!	!LO:N:vis=16	!	!	!	!	!	!LO:TX:a:t=h	!
.	.	.	(32g/LLL	.	32b\LLL	.	.	.	.	.	32cc\J	.	.	.	(32b\LLL	.	.	.	32b\	.	32bb\	.
.	.	.	32e/	.	32cc\	.	.	.	.	.	16a\JJ)	.	.	.	32cc\	.	.	.	32cc\	.	32ccc\ 32aa	.
!	!	!	!LO:N:vis=16	!	!LO:N:vis=16	!	!	!	!	!	!	!	!	!	!	!	!	!	!LO:N:vis=16	!	!LO:N:vis=16	!
.	.	.	32c/JJJ)	.	32a/JJJ)	.	.	.	.	.	.	.	.	.	32a\JJJ)	.	.	.	32a/JJJ)	.	32aa\JJJ)	.
!	!	!	!	!	!	!	!	!	!	!	!	!	!	!	!	!	!	!	!LO:LB:g=original	!	!LO:LB:g=original	!
=18	=18	=18	=18	=18	=18	=18	=18	=18	=18	=18	=18	=18	=18	=18	=18	=18	=18	=18	=18	=18	=18	=18
8G\L	.	.	8.g/L	.	8.g/L	.	8G\	.	.	.	8.g/L	.	.	.	8.g/	ſto-	Je-	Gdzie	8.b\L	.	8.gg\L	.
8B\	.	.	.	.	.	.	8G\	-le	-mu	Po-	.	.	.	.	.	.	.	.	.	.	.	.
.	.	.	16g/Jk	.	16g/Jk	.	.	.	.	.	16g/Jk	-le	-mu	.	16g/	-le	-mu	Po-	16b\Jk	.	16gg\Jk	.
!LO:TX:t=P:problem:mixed beam	!	!	!	!	!	!	!	!	!	!	!	!	!	!	!	!	!	!	!	!	!	!
8d\	.	.	(8.b/L	.	(8.b/L	.	(8D\L	bo-	zna-	-koy	8.g/	bo-	zna-	Po-	(8.b/L	bo-	zna-	-koy	(8.gg\L	.	8.bb\L	.
8D/J	.	.	.	.	.	.	8F#\J)	.	.	.	.	.	.	.	.	.	.	.	.	.	.	.
.	.	.	16a/Jk)	.	16a/Jk)	.	.	.	.	.	16f#/	.	.	-koy	16a/Jk)	.	.	.	16dd\Jk)	.	16aa\Jk	.
!LO:LB:g=original	!	!	!LO:LB:g=original	!	!	!	!LO:LB:g=original	!	!	!	!	!	!	!	!	!	!	!	!	!	!	!
=19	=19	=19	=19	=19	=19	=19	=19	=19	=19	=19	=19	=19	=19	=19	=19	=19	=19	=19	=19	=19	=19	=19
16r	.	.	4a/	.	(4a/	.	4D\	-ga-	-ne-	sta-	4f#/	-ga-	-ne-	sta-	4a/	-ga-	-ne-	sta-	(4dd\	.	4aa\	.
16G|\	.	.	.	.	.	.	.	.	.	.	.	.	.	.	.	.	.	.	.	.	.	.
16D|\LL	.	.	.	.	.	.	.	.	.	.	.	.	.	.	.	.	.	.	.	.	.	.
16BB|\JJ	.	.	.	.	.	.	.	.	.	.	.	.	.	.	.	.	.	.	.	.	.	.
.	.	.	.	.	16qqf#/	.	.	.	.	.	.	.	.	.	.	.	.	.	.	.	.	.
4GG`/	.	.	8g/	.	8g/)	.	8G\	-tym.	-go.	-ły.	8g/	-tym.	-go.	-ły.	8g/	-tym.	-go.	-ły.	8b\)	.	8gg\	.
.	.	.	8ryy	.	8ryy	.	8r	.	.	.	8ryy	.	.	.	8ryy	.	.	.	8ryy	.	8ryy	.
!LO:TX:b:i:t=Da Capo.	!	!	!	!	!	!	!	!	!	!	!	!	!	!	!	!	!	!	!LO:TX:b:i:t=Da Capo.	!	!LO:TX:b:i:t=Da Capo	!
==	==	==	==	==	==	==	==	==	==	==	==	==	==	==	==	==	==	==	==	==	==	==
*-	*-	*-	*-	*-	*-	*-	*-	*-	*-	*-	*-	*-	*-	*-	*-	*-	*-	*-	*-	*-	*-	*-
!!!system-decoration: [g1][g2][g3]g4
!!!RDF**kern: | = vertical stroke
!!!AIN: 1 bass 2 flt 1 organ 2 soprn 2 violn
!!!ENC: Katarzyna Serwa
!!!END: 2021-12-28
!!!ENC: Tomasz Grochalski
!!!END: 2020-08-13
